src/images_karasa_jaga_svg/cmd/32/substract.svg

<svg height="32" viewBox="0 0 32 32" width="32" xmlns="http://www.w3.org/2000/svg" xmlns:xlink="http://www.w3.org/1999/xlink"><linearGradient id="a" gradientTransform="matrix(0 .06940294 .11152914 0 -45.287823 40.766246)" gradientUnits="userSpaceOnUse" x1="399.77466" x2="399.77466" y1="1164.6696" y2="549.06134"><stop offset="0" stop-color="#717174"/><stop offset=".5" stop-color="#9c9ca1"/><stop offset="1" stop-color="#bdbdc2"/></linearGradient><linearGradient id="b" gradientUnits="userSpaceOnUse" x1="47.9548" x2="124.00195" y1="42.023567" y2="42.023567"><stop offset="0" stop-color="#b4b4b6"/><stop offset=".5" stop-color="#9c9ca1"/><stop offset="1" stop-color="#cdcdd1"/></linearGradient><linearGradient id="c" gradientTransform="matrix(0 .57141948 .76189349 0 1.524017 42.98484)" gradientUnits="userSpaceOnUse" x1="119.57646" x2="15.999996" y1="23.792561" y2="109.6508"><stop offset="0" stop-color="#fff"/><stop offset=".42597079" stop-color="#fff"/><stop offset=".5892781" stop-color="#e5e5e5"/><stop offset=".80219781" stop-color="#eaeaea"/><stop offset="1" stop-color="#eee"/></linearGradient><linearGradient id="d" gradientTransform="matrix(0 -1.3692663 -1.7142582 0 105.14142 195.38719)" gradientUnits="userSpaceOnUse" x1="102.31124" x2="74.330322" y1="-5.830213" y2="32"><stop offset="0" stop-color="#fff"/><stop offset="1" stop-color="#fff" stop-opacity="0"/></linearGradient><g transform="scale(.25)"><path d="m15.164062 44c-1.753291 0-3.164062 1.213165-3.164062 2.720703v66.558597c0 1.50754 1.410771 2.7207 3.164062 2.7207h65.671876c1.753291 0 3.164062-1.21316 3.164062-2.7207v-33.332034a38.023575 38.023575 0 0 1 -35.974609-35.947266z" fill="url(#a)" opacity=".75"/><path d="m17.523438 48c-.844178 0-1.523438.564277-1.523438 1.265625v61.468755c0 .70134.67926 1.26562 1.523438 1.26562h60.953124c.844178 0 1.523438-.56428 1.523438-1.26562v-31.207036a38.023575 38.023575 0 0 1 -31.550781-31.527344z" fill="url(#c)" fill-rule="evenodd"/><path d="m53.699219 62.074219c-13.085253 2.27686-26.953551 3.551767-37.699219 4.65625v37.269531c16.614895-6.691249 38.976825-16.018308 55.667969-26.773438a38.023575 38.023575 0 0 1 -17.96875-15.152343z" fill="url(#d)" fill-rule="evenodd"/><path d="m88 4.0722656v4.0292969a34.021244 34.021244 0 0 1 4.849609.6054687l1.027344-3.8320312a38.023575 38.023575 0 0 0 -5.876953-.8027344zm-4 .027344a38.023575 38.023575 0 0 0 -5.886719.7382812l1.042969 3.890625a34.021244 34.021244 0 0 1 4.84375-.6582033zm-9.75 1.7792968a38.023575 38.023575 0 0 0 -5.478516 2.28125l1.990235 3.4453126a34.021244 34.021244 0 0 1 4.53125-1.8378907zm23.490234.035156-1.03125 3.8515625a34.021244 34.021244 0 0 1 4.505856 1.8808591l2.02344-3.503906a38.023575 38.023575 0 0 0 -5.498046-2.2285156zm-29.941406 2.716797a38.023575 38.023575 0 0 0 -.177734.1015625zm38.898442 1.5214846-2.00977 3.482422a34.021244 34.021244 0 0 1 3.86914 2.980468l2.82422-2.826172a38.023575 38.023575 0 0 0 -4.68359-3.636718zm-41.394536.002a38.023575 38.023575 0 0 0 -4.705078 3.613281l2.832032 2.833984a34.021244 34.021244 0 0 1 3.867187-2.996093zm-6.228515 5.03125a38.023575 38.023575 0 0 0 -.556641.556641zm-1.306641 1.412109a38.023575 38.023575 0 0 0 -3.646484 4.6875l3.482422 2.009766a34.021244 34.021244 0 0 1 2.988281-3.873047zm56.445312.01953-2.83398 2.833984a34.021244 34.021244 0 0 1 2.99218 3.857422l3.45508-1.994141a38.023575 38.023575 0 0 0 -3.61328-4.697265zm-62.103515 8.125a38.023575 38.023575 0 0 0 -2.236328 5.505859l3.853515 1.033203a34.021244 34.021244 0 0 1 1.884766-4.515625zm67.714845.03906-3.44531 1.988281a34.021244 34.021244 0 0 1 1.84179 4.525391l3.88672-1.041016a38.023575 38.023575 0 0 0 -2.2832-5.472656zm-70.283204 6.468707a38.023575 38.023575 0 0 0 -.402344 1.5zm-.708985 2.863281a38.023575 38.023575 0 0 0 -.804687 5.886719h4.03125a34.021244 34.021244 0 0 1 .607422-4.861328zm74.322269.002-3.89063 1.042969a34.021244 34.021244 0 0 1 .66406 4.84175h3.97266a38.023575 38.023575 0 0 0 -.74609-5.884766zm-75.1543 6.646438a38.023575 38.023575 0 0 0 -.044922 1.261719 38.023575 38.023575 0 0 0 .044922 1.263671zm76 1.222656v.09375a38.023575 38.023575 0 0 0 .002-.05469 38.023575 38.023575 0 0 0 -.002-.03906zm-4.09961 2.015625a34.021244 34.021244 0 0 1 -.5957 4.851562l3.83203 1.027344a38.023575 38.023575 0 0 0 .79492-5.878906zm2.76172 7.998047-.0898.330078a38.023575 38.023575 0 0 0 .0898-.330078zm-4.41406.714844a34.021244 34.021244 0 0 1 -1.87696 4.511718l3.50391 2.023438a38.023575 38.023575 0 0 0 2.22656-5.503906zm-3.86328 7.984375a34.021244 34.021244 0 0 1 -2.97852 3.878906l2.82617 2.826172a38.023575 38.023575 0 0 0 3.64063-4.691406zm-5.8125 6.705078a34.021244 34.021244 0 0 1 -3.86329 3l1.9961 3.458984a38.023575 38.023575 0 0 0 4.70117-3.625zm4.89453.871094-.64063.640624a38.023575 38.023575 0 0 0 .64063-.640624zm-12.2168 4.140624a34.021244 34.021244 0 0 1 -4.535156 1.845704l1.042968 3.890625a38.023575 38.023575 0 0 0 5.482418-2.291016zm3.70117 2.521485-1.02734.59375a38.023575 38.023575 0 0 0 1.02734-.59375zm-12.099608.367187a34.021244 34.021244 0 0 1 -4.851562.667969v3.974609a38.023575 38.023575 0 0 0 5.894531-.748046zm4.488282 3-1.126953.300782a38.023575 38.023575 0 0 0 1.126953-.300782zm-12.292969 1.697266a38.023575 38.023575 0 0 0 .931641.04687 38.023575 38.023575 0 0 0 .939453-.04687z" fill="url(#b)"/><path d="m48.025391 44a38.023575 38.023575 0 0 0 35.974609 35.947266v-3.988282a34.021244 34.021244 0 0 1 -28-17.851562 34.021244 34.021244 0 0 1 -1.316406-2.8125 34.021244 34.021244 0 0 1 -.347656-.890625 34.021244 34.021244 0 0 1 -.81836-2.283203 34.021244 34.021244 0 0 1 -.277344-1.001953 34.021244 34.021244 0 0 1 -.558593-2.242188 34.021244 34.021244 0 0 1 -.185547-.876953h.0332a34.021244 34.021244 0 0 1 -.474609-4z" fill="url(#a)" opacity=".75"/></g></svg>

<?xml version="1.0" encoding="UTF-8" standalone="no"?>
<!-- Created with Inkscape (http://www.inkscape.org/) -->

<svg
   xmlns:dc="http://purl.org/dc/elements/1.1/"
   xmlns:cc="http://creativecommons.org/ns#"
   xmlns:rdf="http://www.w3.org/1999/02/22-rdf-syntax-ns#"
   xmlns:svg="http://www.w3.org/2000/svg"
   xmlns="http://www.w3.org/2000/svg"
   xmlns:xlink="http://www.w3.org/1999/xlink"
   xmlns:sodipodi="http://sodipodi.sourceforge.net/DTD/sodipodi-0.dtd"
   xmlns:inkscape="http://www.inkscape.org/namespaces/inkscape"
   version="1.1"
   id="svg2"
   width="128"
   height="128"
   viewBox="0 0 128 128"
   sodipodi:docname="substract.svg"
   inkscape:version="0.92.3 (unknown)"
   inkscape:export-filename="/home/rizmut/Dokumen/Rizmut/Github/libreoffice-style-karasa-jaga/build/images_karasa_jaga/cmd/32/substract.png"
   inkscape:export-xdpi="24"
   inkscape:export-ydpi="24">
  <metadata
     id="metadata8">
    <rdf:RDF>
      <cc:Work
         rdf:about="">
        <dc:format>image/svg+xml</dc:format>
        <dc:type
           rdf:resource="http://purl.org/dc/dcmitype/StillImage" />
        <dc:title></dc:title>
      </cc:Work>
    </rdf:RDF>
  </metadata>
  <defs
     id="defs6">
    <linearGradient
       id="linearGradient4112">
      <stop
         id="stop4114"
         offset="0"
         style="stop-color:#bbf10e;stop-opacity:1" />
      <stop
         id="stop4116"
         offset="1"
         style="stop-color:#5f9207;stop-opacity:1" />
    </linearGradient>
    <linearGradient
       id="linearGradient4105">
      <stop
         id="stop4107"
         offset="0"
         style="stop-color:#033a13;stop-opacity:1" />
      <stop
         id="stop4109"
         offset="1"
         style="stop-color:#398c37;stop-opacity:1" />
    </linearGradient>
    <linearGradient
       inkscape:collect="always"
       xlink:href="#linearGradient4373"
       id="linearGradient10248"
       gradientUnits="userSpaceOnUse"
       gradientTransform="matrix(0.17638886,0,0,0.17638871,11.288891,263.13331)"
       x1="122.70804"
       y1="2.1668341"
       x2="132"
       y2="37.94305" />
    <linearGradient
       id="linearGradient4373">
      <stop
         id="stop4375"
         style="stop-color:#717174;stop-opacity:1"
         offset="0" />
      <stop
         id="stop4377"
         style="stop-color:#9c9ca1;stop-opacity:1"
         offset="0.5" />
      <stop
         id="stop4379"
         style="stop-color:#bdbdc2;stop-opacity:1"
         offset="1" />
    </linearGradient>
    <linearGradient
       id="linearGradient2431">
      <stop
         id="stop2433"
         style="stop-color:#ffffff;stop-opacity:1"
         offset="0" />
      <stop
         id="stop2435"
         style="stop-color:#ffffff;stop-opacity:1"
         offset="0.42597079" />
      <stop
         id="stop2437"
         style="stop-color:#e5e5e5;stop-opacity:1"
         offset="0.5892781" />
      <stop
         id="stop2439"
         style="stop-color:#eaeaea;stop-opacity:1"
         offset="0.80219781" />
      <stop
         id="stop2441"
         style="stop-color:#eeeeee;stop-opacity:1"
         offset="1" />
    </linearGradient>
    <linearGradient
       id="linearGradient3310">
      <stop
         id="stop3312"
         style="stop-color:#ffffff;stop-opacity:1"
         offset="0" />
      <stop
         id="stop3314"
         style="stop-color:#ffffff;stop-opacity:0"
         offset="1" />
    </linearGradient>
    <linearGradient
       inkscape:collect="always"
       xlink:href="#linearGradient7422-6"
       id="linearGradient1705"
       x1="53.544228"
       y1="38.029163"
       x2="121.03486"
       y2="38.029163"
       gradientUnits="userSpaceOnUse"
       gradientTransform="matrix(1.1267809,0,0,1.1267809,-12.377813,-0.82696664)" />
    <linearGradient
       id="linearGradient7422-6">
      <stop
         style="stop-color:#b4b4b6;stop-opacity:1;"
         offset="0"
         id="stop7424-3" />
      <stop
         id="stop5367"
         offset="0.5"
         style="stop-color:#9c9ca1;stop-opacity:1;" />
      <stop
         id="stop7426-2"
         offset="1"
         style="stop-color:#cdcdd1;stop-opacity:1;" />
    </linearGradient>
    <linearGradient
       x1="399.77466"
       y1="1164.6696"
       x2="399.77466"
       y2="549.06134"
       id="linearGradient5501-5"
       xlink:href="#linearGradient4373"
       gradientUnits="userSpaceOnUse"
       gradientTransform="matrix(0,0.06940294,0.11152914,0,-45.287823,40.766246)" />
    <linearGradient
       x1="119.57646"
       y1="23.792561"
       x2="15.999996"
       y2="109.6508"
       id="linearGradient5503-3"
       xlink:href="#linearGradient2431"
       gradientUnits="userSpaceOnUse"
       gradientTransform="matrix(0,0.57141948,0.76189349,0,1.5240172,42.98484)" />
    <linearGradient
       x1="102.31124"
       y1="-5.8302126"
       x2="74.330322"
       y2="32"
       id="linearGradient5505-2"
       xlink:href="#linearGradient3310"
       gradientUnits="userSpaceOnUse"
       gradientTransform="matrix(0,-1.3692663,-1.7142582,0,105.14142,195.38719)" />
    <linearGradient
       inkscape:collect="always"
       xlink:href="#linearGradient4373"
       id="linearGradient887"
       gradientUnits="userSpaceOnUse"
       gradientTransform="matrix(0,0.06940294,0.11152914,0,-45.287823,40.766246)"
       x1="399.77466"
       y1="1164.6696"
       x2="399.77466"
       y2="549.06134" />
  </defs>
  <sodipodi:namedview
     pagecolor="#ffffff"
     bordercolor="#666666"
     borderopacity="1"
     objecttolerance="10"
     gridtolerance="10"
     guidetolerance="10"
     inkscape:pageopacity="0"
     inkscape:pageshadow="2"
     inkscape:window-width="1366"
     inkscape:window-height="706"
     id="namedview4"
     showgrid="true"
     inkscape:snap-page="true"
     inkscape:zoom="1.7285157"
     inkscape:cx="166.49903"
     inkscape:cy="14.846883"
     inkscape:window-x="0"
     inkscape:window-y="0"
     inkscape:window-maximized="1"
     inkscape:current-layer="g1015"
     inkscape:snap-global="true">
    <inkscape:grid
       type="xygrid"
       id="grid977"
       spacingx="4"
       spacingy="4"
       empspacing="1" />
  </sodipodi:namedview>
  <g
     id="g1015">
    <path
       style="opacity:0.75;fill:url(#linearGradient5501-5);fill-opacity:1;fill-rule:nonzero;stroke:none;stroke-width:13.71407127;stroke-linecap:round;stroke-linejoin:round;stroke-miterlimit:4;stroke-dasharray:none;stroke-dashoffset:4;stroke-opacity:1"
       d="M 15.164062 44 C 13.410771 44 12 45.213165 12 46.720703 L 12 113.2793 C 12 114.78684 13.410771 116 15.164062 116 L 80.835938 116 C 82.589229 116 84 114.78684 84 113.2793 L 84 79.947266 A 38.023575 38.023575 0 0 1 48.025391 44 L 15.164062 44 z "
       id="rect5489" />
    <path
       style="fill:url(#linearGradient5503-3);fill-opacity:1;fill-rule:evenodd;stroke:none;stroke-width:54.8562851;stroke-linecap:round;stroke-linejoin:round;stroke-miterlimit:4;stroke-dasharray:none;stroke-opacity:1"
       d="M 17.523438 48 C 16.67926 48 16 48.564277 16 49.265625 L 16 110.73438 C 16 111.43572 16.67926 112 17.523438 112 L 78.476562 112 C 79.32074 112 80 111.43572 80 110.73438 L 80 79.527344 A 38.023575 38.023575 0 0 1 48.449219 48 L 17.523438 48 z "
       id="rect5491" />
    <path
       style="fill:url(#linearGradient5505-2);fill-opacity:1;fill-rule:evenodd;stroke:none;stroke-width:6.85703564px;stroke-linecap:butt;stroke-linejoin:miter;stroke-opacity:1"
       d="M 53.699219 62.074219 C 40.613966 64.351079 26.745668 65.625986 16 66.730469 L 16 104 C 32.614895 97.308751 54.976825 87.981692 71.667969 77.226562 A 38.023575 38.023575 0 0 1 53.699219 62.074219 z "
       id="path5493" />
    <path
       style="opacity:1;vector-effect:none;fill:url(#linearGradient1705);fill-opacity:1;stroke:none;stroke-width:6.91337776;stroke-linecap:butt;stroke-linejoin:miter;stroke-miterlimit:4;stroke-dasharray:none;stroke-dashoffset:0;stroke-opacity:1"
       d="M 88 4.0722656 L 88 8.1015625 A 34.021244 34.021244 0 0 1 92.849609 8.7070312 L 93.876953 4.875 A 38.023575 38.023575 0 0 0 88 4.0722656 z M 84 4.0996094 A 38.023575 38.023575 0 0 0 78.113281 4.8378906 L 79.15625 8.7285156 A 34.021244 34.021244 0 0 1 84 8.0703125 L 84 4.0996094 z M 74.25 5.8789062 A 38.023575 38.023575 0 0 0 68.771484 8.1601562 L 70.761719 11.605469 A 34.021244 34.021244 0 0 1 75.292969 9.7675781 L 74.25 5.8789062 z M 97.740234 5.9140625 L 96.708984 9.765625 A 34.021244 34.021244 0 0 1 101.21484 11.646484 L 103.23828 8.1425781 A 38.023575 38.023575 0 0 0 97.740234 5.9140625 z M 67.798828 8.6308594 A 38.023575 38.023575 0 0 0 67.621094 8.7324219 L 67.798828 8.6308594 z M 106.69727 10.152344 L 104.6875 13.634766 A 34.021244 34.021244 0 0 1 108.55664 16.615234 L 111.38086 13.789062 A 38.023575 38.023575 0 0 0 106.69727 10.152344 z M 65.302734 10.154297 A 38.023575 38.023575 0 0 0 60.597656 13.767578 L 63.429688 16.601562 A 34.021244 34.021244 0 0 1 67.296875 13.605469 L 65.302734 10.154297 z M 59.074219 15.185547 A 38.023575 38.023575 0 0 0 58.517578 15.742188 L 59.074219 15.185547 z M 57.767578 16.597656 A 38.023575 38.023575 0 0 0 54.121094 21.285156 L 57.603516 23.294922 A 34.021244 34.021244 0 0 1 60.591797 19.421875 L 57.767578 16.597656 z M 114.21289 16.617188 L 111.37891 19.451172 A 34.021244 34.021244 0 0 1 114.37109 23.308594 L 117.82617 21.314453 A 38.023575 38.023575 0 0 0 114.21289 16.617188 z M 52.109375 24.742188 A 38.023575 38.023575 0 0 0 49.873047 30.248047 L 53.726562 31.28125 A 34.021244 34.021244 0 0 1 55.611328 26.765625 L 52.109375 24.742188 z M 119.82422 24.78125 L 116.37891 26.769531 A 34.021244 34.021244 0 0 1 118.2207 31.294922 L 122.10742 30.253906 A 38.023575 38.023575 0 0 0 119.82422 24.78125 z M 49.541016 31.25 A 38.023575 38.023575 0 0 0 49.138672 32.75 L 49.541016 31.25 z M 48.832031 34.113281 A 38.023575 38.023575 0 0 0 48.027344 40 L 52.058594 40 A 34.021244 34.021244 0 0 1 52.666016 35.138672 L 48.832031 34.113281 z M 123.1543 34.115234 L 119.26367 35.158203 A 34.021244 34.021244 0 0 1 119.92773 40 L 123.90039 40 A 38.023575 38.023575 0 0 0 123.1543 34.115234 z M 48 40.761719 A 38.023575 38.023575 0 0 0 47.955078 42.023438 A 38.023575 38.023575 0 0 0 48 43.287109 L 48 40.761719 z M 124 41.984375 L 124 42.078125 A 38.023575 38.023575 0 0 0 124.00195 42.023438 A 38.023575 38.023575 0 0 0 124 41.984375 z M 119.90039 44 A 34.021244 34.021244 0 0 1 119.30469 48.851562 L 123.13672 49.878906 A 38.023575 38.023575 0 0 0 123.93164 44 L 119.90039 44 z M 122.66211 51.998047 L 122.57227 52.328125 A 38.023575 38.023575 0 0 0 122.66211 51.998047 z M 118.24805 52.712891 A 34.021244 34.021244 0 0 1 116.37109 57.224609 L 119.875 59.248047 A 38.023575 38.023575 0 0 0 122.10156 53.744141 L 118.24805 52.712891 z M 114.38477 60.697266 A 34.021244 34.021244 0 0 1 111.40625 64.576172 L 114.23242 67.402344 A 38.023575 38.023575 0 0 0 117.87305 62.710938 L 114.38477 60.697266 z M 108.57227 67.402344 A 34.021244 34.021244 0 0 1 104.70898 70.402344 L 106.70508 73.861328 A 38.023575 38.023575 0 0 0 111.40625 70.236328 L 108.57227 67.402344 z M 113.4668 68.273438 L 112.82617 68.914062 A 38.023575 38.023575 0 0 0 113.4668 68.273438 z M 101.25 72.414062 A 34.021244 34.021244 0 0 1 96.714844 74.259766 L 97.757812 78.150391 A 38.023575 38.023575 0 0 0 103.24023 75.859375 L 101.25 72.414062 z M 104.95117 74.935547 L 103.92383 75.529297 A 38.023575 38.023575 0 0 0 104.95117 74.935547 z M 92.851562 75.302734 A 34.021244 34.021244 0 0 1 88 75.970703 L 88 79.945312 A 38.023575 38.023575 0 0 0 93.894531 79.197266 L 92.851562 75.302734 z M 97.339844 78.302734 L 96.212891 78.603516 A 38.023575 38.023575 0 0 0 97.339844 78.302734 z M 85.046875 80 A 38.023575 38.023575 0 0 0 85.978516 80.046875 A 38.023575 38.023575 0 0 0 86.917969 80 L 85.046875 80 z "
       id="path1671" />
    <path
       style="opacity:0.75;fill:url(#linearGradient887);fill-opacity:1;fill-rule:nonzero;stroke:none;stroke-width:13.71407127;stroke-linecap:round;stroke-linejoin:round;stroke-miterlimit:4;stroke-dasharray:none;stroke-dashoffset:4;stroke-opacity:1"
       d="M 48.025391 44 A 38.023575 38.023575 0 0 0 84 79.947266 L 84 75.958984 A 34.021244 34.021244 0 0 1 56 58.107422 A 34.021244 34.021244 0 0 1 54.683594 55.294922 A 34.021244 34.021244 0 0 1 54.335938 54.404297 A 34.021244 34.021244 0 0 1 53.517578 52.121094 A 34.021244 34.021244 0 0 1 53.240234 51.119141 A 34.021244 34.021244 0 0 1 52.681641 48.876953 A 34.021244 34.021244 0 0 1 52.496094 48 L 52.529297 48 A 34.021244 34.021244 0 0 1 52.054688 44 L 48.025391 44 z "
       id="rect883" />
  </g>
</svg>
